X:107
T:Quick Step(from Louth),2voices. JGi.107
T:Louth Quickstep. JGi.107
O:Tealby,Lincolnshire
M:2/4
L:1/8
Q:1/4=90
S:Joshua Gibbons MS,1823,Tealby,Lincs.
R:quick step
Z:VMP/R.Greig, 2009
K:F
[V:1]|:ffaf|ggbg|ffaf|{a}g/f/g/a/ g2|ffaf|ggbg|b/a/g/f/ e/f/g/e/|f2fz:|
[V:2]|:AAcA|eege|AAcA|e/d/e/f/ e2|AAcc|eege|f/c/B/A/ G/A/B/G/|A2Az:|
[V:1]|:aac’a|c’a2f|ggbg|bg2e|ffaf|ggbg|b/a/g/f/ e/f/g/a/|f2fz:|
[V:2]|:ccaf|ac2A|eege|ge2B|AAcA|eege|d/2c/2B/2A/2 GA/2B/2|A2Az:|
[V:1]|:ffee|ddcc|dfeg|{g}f/e/f/g/ fc|ffee|ddcc|dfeg|f2fz:|
[V:2]|:ddcc|BBAA|BAGB|A/G/A/B/ AA|ddcc|BBAA|Fd BD|A2Az:|
[V:1]|:c’2ac’|b2gb|afef|g/f/g/a/ gg|c’2ac’|b2gb|afge|f2″DC”fz:|
[V:2]|:a2ca|g2eg|fcBA|e/d/e/f/ ee|a2ca|g2eg|c2BG/B/|A2″DC”Az:|

